synths/sFTSE.svg

<svg width="42" height="42" viewBox="0 0 42 42" fill="none" xmlns="http://www.w3.org/2000/svg">
<g clip-path="url(#clip0_7277_57859)">
<mask id="mask0_7277_57859" style="mask-type:alpha" maskUnits="userSpaceOnUse" x="0" y="0" width="42" height="42">
<circle cx="21" cy="21" r="21" fill="url(#paint0_linear_7277_57859)"/>
</mask>
<g mask="url(#mask0_7277_57859)">
<circle cx="21" cy="21" r="21" fill="#34EDB3"/>
<circle cx="21" cy="21" r="18.2" fill="white"/>
</g>
<circle cx="21" cy="21" r="16.1" fill="#06061B"/>
<g clip-path="url(#clip1_7277_57859)">
<path d="M21.0001 4.86597C29.9107 4.86597 37.1342 12.0894 37.1342 20.9993C37.1342 29.9099 29.9107 37.1342 21.0001 37.1342C12.0902 37.1342 4.8667 29.9099 4.8667 20.9993C4.8667 12.0894 12.0902 4.86597 21.0001 4.86597Z" fill="#FEFEFE"/>
<path d="M15.5942 15.3005V5.7949C12.5136 6.89084 9.86475 8.89707 7.9696 11.4871L15.5942 15.3005ZM15.5942 26.6997V36.2052C12.5151 35.1093 9.86699 33.1046 7.97035 30.5131L15.5942 26.6997ZM26.3709 26.6997V36.2179C29.4611 35.1272 32.1182 33.121 34.0208 30.5265L26.3709 26.6997ZM26.3709 15.3005V5.78223C29.4611 6.87294 32.1197 8.87917 34.0216 11.4744L26.3709 15.3005Z" fill="#012169"/>
<path d="M35.3367 26.3798H31.7499L35.4291 28.2228C35.6684 27.7449 35.8846 27.2536 36.077 26.7504L35.3367 26.3798ZM34.6403 12.3817L28.1974 15.6121H31.7842L35.4336 13.7855C35.1928 13.3039 34.9274 12.835 34.6403 12.3817ZM17.7503 24.2252V36.8061C18.8 37.0201 19.887 37.1342 21.0001 37.1342C22.1005 37.1342 23.1763 37.0231 24.2155 36.8136V24.2252H36.8106C37.0216 23.183 37.1342 22.105 37.1342 20.9993C37.1342 19.89 37.0216 18.806 36.8084 17.7585H24.2155V5.18729C23.1571 4.97334 22.0799 4.86569 21.0001 4.86597C19.887 4.86597 18.8 4.98078 17.7503 5.194V17.7585H5.1925C4.97554 18.8251 4.86639 19.9109 4.8667 20.9993C4.8667 22.105 4.97928 23.183 5.19026 24.2252H17.7503ZM6.6202 15.6203H10.207L6.56204 13.7952C6.32347 14.2731 6.10652 14.7659 5.91492 15.2684L6.6202 15.6203ZM13.7676 26.388H10.1809L6.55981 28.2004C6.80167 28.6842 7.06766 29.1554 7.35678 29.6125L13.8004 26.388H13.7676Z" fill="#C8102E"/>
</g>
</g>
<defs>
<linearGradient id="paint0_linear_7277_57859" x1="21" y1="0" x2="21" y2="61.4091" gradientUnits="userSpaceOnUse">
<stop stop-color="#08021E"/>
<stop offset="1" stop-color="#1F0777"/>
</linearGradient>
<clipPath id="clip0_7277_57859">
<rect width="42" height="42" fill="white"/>
</clipPath>
<clipPath id="clip1_7277_57859">
<rect width="32.2" height="32.2" fill="white" transform="translate(4.90002 4.90002)"/>
</clipPath>
</defs>
</svg>

<svg xmlns="http://www.w3.org/2000/svg" width="42" height="42" fill="none"><g clip-path="url(#a)"><mask id="c" width="42" height="42" x="0" y="0" maskUnits="userSpaceOnUse" style="mask-type:alpha"><circle cx="21" cy="21" r="21" fill="url(#b)"/></mask><g mask="url(#c)"><circle cx="21" cy="21" r="21" fill="#34EDB3"/><circle cx="21" cy="21" r="18.2" fill="#fff"/></g><circle cx="21" cy="21" r="16.1" fill="#06061B"/><g clip-path="url(#d)"><path fill="#FEFEFE" d="M21 4.866c8.91 0 16.134 7.223 16.134 16.133S29.911 37.134 21 37.134C12.09 37.134 4.867 29.91 4.867 21 4.867 12.09 12.09 4.866 21 4.866Z"/><path fill="#012169" d="M15.594 15.3V5.795a16.187 16.187 0 0 0-7.624 5.692l7.624 3.813Zm0 11.4v9.505a16.19 16.19 0 0 1-7.624-5.692l7.624-3.813Zm10.777 0v9.518a16.18 16.18 0 0 0 7.65-5.692L26.37 26.7Zm0-11.4V5.782a16.176 16.176 0 0 1 7.65 5.692l-7.65 3.826Z"/><path fill="#C8102E" d="M35.337 26.38H31.75l3.68 1.843c.238-.478.455-.97.647-1.473l-.74-.37Zm-.697-13.998-6.443 3.23h3.587l3.65-1.826a15.99 15.99 0 0 0-.794-1.404ZM17.75 24.225v12.581a16.257 16.257 0 0 0 6.465.008V24.225h12.596a16.239 16.239 0 0 0-.003-6.466H24.215V5.187a16.207 16.207 0 0 0-6.465.007v12.565H5.192a16.236 16.236 0 0 0-.002 6.466h12.56ZM6.62 15.62h3.587l-3.645-1.825c-.239.478-.455.97-.647 1.473l.705.352Zm7.148 10.768H10.18L6.56 28.2c.242.484.508.955.797 1.413l6.443-3.225h-.032Z"/></g></g><defs><clipPath id="a"><path fill="#fff" d="M0 0h42v42H0z"/></clipPath><clipPath id="d"><path fill="#fff" d="M4.9 4.9h32.2v32.2H4.9z"/></clipPath><linearGradient id="b" x1="21" x2="21" y1="0" y2="61.409" gradientUnits="userSpaceOnUse"><stop stop-color="#08021E"/><stop offset="1" stop-color="#1F0777"/></linearGradient></defs></svg>
